X: 23
T: JIGS: Stick Across the Hob Set
T: Stick Across the Hob / Tom Billy's Whelan's / O'Keeffe's Morrison's
C: C: Trad.; S: Pádraig O'Keeffe & Denis Murphy / Various
C: Set Leaders: Oliushka, Anton
Z: Anton Zille ed. arr., Oleg Naumov arr.; Bregolas / xikay01 at The Session
N: https://thesession.org/members/26966/sets/76537
R: Jig
M: 6/8
L: 1/8
Q: 3/8=116
K: Emin
|:"Em"~E3 ~B3|"Em"ABB "D"AFD|"Em"EDE ~B3|"G"eBB "D"AFD|
"Em"(D~E2) ~B3|"Em"ABB "D"AFA|"G"BAF ABd|1 "D"edB AFD:|2 "D"edB ABd||
"Em"e3 efa|"Em"baf "D"fed|"Em"Bee e3|"D"a/b/af dfa|
"G"b2b "D/F#"a2f|"Em"efe "D"def|"Asus4"g2f fed|"A"BAB dBA|
"Em"Bee fee|"Em"bee "D"fed|"Em"Bee ede|"D"faf dfa|
"G"b2b "D/F#"a2f|"Em"efe "D"def|"A"g2f fed|"Asus4"BAB dBA||
|:"G"g2g "D/F#"f2f|"Em"efe "D"d2e|"(Asus4)"fef def|"A"edB dBA|
"G"gfe "D/F#"fed|"Em"edB "D"d2e|"(Asus4)"~f3 def|"Asus4"edB AFD:||
T: Out on the Ocean
K: Gmaj
|:"G"D2B BAG|BdB ABA|"C"GED G2A|"D"BdB AGE|
"G"D2B BAG|BdB ABA|"C"GED G2A|1 "D"BGF G2E :|2 "D"BGF GBd||
"C"e2e edB|ege edB|"Bm7"d2d dBA|"Em"ded dBA|
"G"G2A "D"B2d|"C"e/f/ge dBA|"D"GED G2A|"C"BGF "D"GBd|
"C (Em)"e2e edB|ege edB|"Bm7"d2d def|"Em"gfe dBA|
"G"G2A "D"B2d|"C"e/f/ge dBA|"D"GED G2A|"C"BGF "D"GFE||

